!!!!SEGMENT: pl-kk--kk-i-6--051_gorczycki-grzegorz-gerwazy--salve-virgo-puerpera.krn
!!!cenid: 16xx:1047
!!!COM: Gorczycki, Grzegorz Gerwazy
!!!COM-rismID: pe30009207
!!!CDT: ~1666-1734/04/30
!!!CNT: Polish
!!!OTL: Salve virgo puerpera
!!!PDT:
!!!AGN:
!!!SMS-siglum: PL-Kk
!!!SMS-shelfmark: Kk.I.6
!!!SMS-shelfwork: 051 W
!!!SMS-variant:
!!!SMS-altvar:
!!!NIFC-rismSourceID: 1001136555
!!!NIFC-islandoraID: pl-kk:1634
!!!URL-pdf-islandora: https://repozytorium.nifc.pl/islandora/object/pl-kk%3A1634/datastream/PDF/view
!!!URL-scan: https://polish.musicsources.pl/pl/lokalizacje/galeria/rekopisy/6133 @EN{Scan on Polish Music Herritage in Open Access Website} @PL{Skany w portalu Dziedzictwo Muzyki Polskiej w otwartym dostępie}
!!!ONB-nifc: UWAGA: C (skan 0085, s. 166-167), T (skan 0196, s. 196-197), B (skan 0309, s. 200-201) Następny utwór: Eia Mater
!!!AIN: 1 bass 2 tenor
!!!key: d
**kern	**text	**text	**text	**text	**kern	**text	**text	**text	**text	**kern	**text	**text	**text	**text
*part3	*part3	*part3	*part3	*part3	*part2	*part2	*part2	*part2	*part2	*part1	*part1	*part1	*part1	*part1
*staff3	*staff3	*staff3	*staff3	*staff3	*staff2	*staff2	*staff2	*staff2	*staff2	*staff1	*staff1	*staff1	*staff1	*staff1
*I"Baſsus.	*	*	*	*	*I"Tenor.	*	*	*	*	*I"Canto.	*	*	*	*
*I'B	*	*	*	*	*I'T	*	*	*	*	*I'T	*	*	*	*
*Ibass	*	*	*	*	*Itenor	*	*	*	*	*Itenor	*	*	*	*
*ICvox	*	*	*	*	*ICvox	*	*	*	*	*ICvox	*	*	*	*
*clefF4	*	*	*	*	*clefC4	*	*	*	*	*clefC4	*	*	*	*
*k[]	*	*	*	*	*k[]	*	*	*	*	*k[]	*	*	*	*
*d:	*	*	*	*	*d:	*	*	*	*	*d:	*	*	*	*
*M2/1	*	*	*	*	*M2/1	*	*	*	*	*M2/1	*	*	*	*
*met(C|)	*	*	*	*	*met(C|)	*	*	*	*	*met(C|)	*	*	*	*
=1-	=1-	=1-	=1-	=1-	=1-	=1-	=1-	=1-	=1-	=1-	=1-	=1-	=1-	=1-
!!LO:TX:t=P:problem:pełne nazwy głosów zaczerpięte z okładki
!!LO:TX:t=P:problem:oddech/cezura na różnej wysokości:global
!!LO:TX:t=P:problem:przed kluczem 3 dźwięki (D,F,A) Intonatio napisane nutami semibrevis wypełnionymi czarnym kolorem (za RISM)
0r	.	.	.	.	1r	.	.	.	.	0r	.	.	.	.
.	.	.	.	.	1D	Sal-	ſo-	Ter-	Ci-	.	.	.	.	.
=2-	=2-	=2-	=2-	=2-	=2-	=2-	=2-	=2-	=2-	=2-	=2-	=2-	=2-	=2-
1r	.	.	.	.	2.F/	-ve	-la-	-ra	-vi-	1D	Sal-	ſo-	Ter-	Ci-
.	.	.	.	.	4G/	.	.	.	.	.	.	.	.	.
1.D	Sal-	ſo-	Ter-	Ci-	1A	Vir-	.	es	-tas	1F	-ve	-la-	-ra	-vi-
=3-	=3-	=3-	=3-	=3-	=3-	=3-	=3-	=3-	=3-	=3-	=3-	=3-	=3-	=3-
.	.	.	.	.	2G/	-go	-men	.	Al-	1G	Vir-	-men	es	-tas
*	*	*	*	*	*2\right	*	*	*	*	*	*	*	*	*
2C/	-ve	-la-	-ra	-vi-	2.c\	Vir-	moe-	be-	.	.	.	.	.	.
*2\right	*	*	*	*	*	*	*	*	*	*	*	*	*	*
2.F\	Vir-	-men	es	-tas	.	.	.	.	.	1A	-go	moe-	be-	Al-
.	.	.	.	.	4B-X\	.	.	.	.	.	.	.	.	.
.	.	.	.	.	1A\	-go	.	-ne-	.	.	.	.	.	.
4E\	.	.	be-	.	.	.	.	.	.	.	.	.	.	.
=4-	=4-	=4-	=4-	=4-	=4-	=4-	=4-	=4-	=4-	=4-	=4-	=4-	=4-	=4-
2D/	-go	moe-	-ne-	.	.	.	.	.	.	1F	pu-	-ren-	ne-	-tiſ-
2D/	pu-	-ren-	.	Al-	2A/	pu-	.	.	.	.	.	.	.	.
2.AA/	-er-	.	.	-tiſ-	2.A/	-er-	-ren-	.	-tiſ-	2.E/	-er-	.	.	.
4AA/	-pe-	-ti-	-di-	-si-	4A/	-pe-	-ti-	-di-	-si-	4E/	-pe-	-ti-	-di-	-si-
=5-	=5-	=5-	=5-	=5-	=5-	=5-	=5-	=5-	=5-	=5-	=5-	=5-	=5-	=5-
!	!	!	!	!	!	!	!	!	!	!LO:TX:t=P:problem:kreska pseudotaktowa	!	!	!	!
2D/	-ra	-um	-cta	-mi	1A	-ra	-um	-cta	-mi	1D	-ra	-um	-cta	-mi
*lig	*	*	*	*	*	*	*	*	*	*	*	*	*	*
1D	Tem-	hor-	et	Por-	.	.	.	.	.	.	.	.	.	.
*	*	*	*	*	*lig	*	*	*	*	*	*	*	*	*
.	.	.	.	.	1A	Tem-	Hor-	et	Por-	1r	.	.	.	.
1F\	.	.	.	.	.	.	.	.	.	.	.	.	.	.
*Xlig	*	*	*	*	*	*	*	*	*	*	*	*	*	*
=6-	=6-	=6-	=6-	=6-	=6-	=6-	=6-	=6-	=6-	=6-	=6-	=6-	=6-	=6-
*	*	*	*	*	*	*	*	*	*	*lig	*	*	*	*
.	.	.	.	.	1c	.	.	.	.	1A	Tem-	Hor-	et	Por-
2C,/	-plum,	-tus	ſa-	-ta	.	.	.	.	.	.	.	.	.	.
*	*	*	*	*	*Xlig	*	*	*	*	*	*	*	*	*
2.E\	Tri-	vo-	-cer-	o-	1G	-plum	-tus	ſa-	-ta	1c	.	.	.	.
4F\	-ni-	.	.	-ri-	.	.	.	.	.	.	.	.	.	.
*	*	*	*	*	*	*	*	*	*	*Xlig	*	*	*	*
=7-	=7-	=7-	=7-	=7-	=7-	=7-	=7-	=7-	=7-	=7-	=7-	=7-	=7-	=7-
1G	-ta-	-lu-	-do-	-en-	4Bn\	Tri-	vo-	-cer-	o-	1B	-plum	-tus	ſa-	-ta
.	.	.	.	.	4c\	-ni-	-lu-	-do-	-rien-	.	.	.	.	.
.	.	.	.	.	1d	-ta-	-pta-	-ta-	-ta-	.	.	.	.	.
4D\	.	-pta-	-ta-	-ta-	.	.	.	.	.	1d	Tri-	vo-	-cer-	o-
4E\	.	.	.	.	.	.	.	.	.	.	.	.	.	.
4F\	.	.	.	.	4A\	.	.	.	.	.	.	.	.	.
4G\	.	.	.	.	4B\	.	.	.	.	.	.	.	.	.
=8-	=8-	=8-	=8-	=8-	=8-	=8-	=8-	=8-	=8-	=8-	=8-	=8-	=8-	=8-
4A\	.	.	.	.	4c\	.	.	.	.	1c	-ni-	-lu-	-do-	-rien-
4AA/	.	.	.	.	4d\	.	.	.	.	.	.	.	.	.
1A	.	.	.	.	2e\	.	.	.	.	.	.	.	.	.
.	.	.	.	.	(4A\	.	.	.	.	1B	-ta-	-pta-	-ta-	-ta-
.	.	.	.	.	4d\)	.	.	.	.	.	.	.	.	.
2G#X\	.	.	.	.	2B\	.	.	.	.	.	.	.	.	.
=9-	=9-	=9-	=9-	=9-	=9-	=9-	=9-	=9-	=9-	=9-	=9-	=9-	=9-	=9-
!	!	!	!	!	!	!	!	!	!	!LO:TX:t=P:problem:kreska pseudotaktowa	!	!	!	!
1A	-tis	-tis	-lis	-lis	1c	-tis	-tis	-lis	-lis	1A	-tis	-tis	-lis	-lis
0r	.	.	.	.	1r	.	.	.	.	0r	.	.	.	.
=10-	=10-	=10-	=10-	=10-	=10-	=10-	=10-	=10-	=10-	=10-	=10-	=10-	=10-	=10-
.	.	.	.	.	2c\	An-	Pal-	ſan-	in	.	.	.	.	.
.	.	.	.	.	2c\	-ge-	-ma	-cta	Te	.	.	.	.	.
1r	.	.	.	.	1A	-lo-	pa-	es	est	1c	An-	Pal-	ſan-	In
=11-	=11-	=11-	=11-	=11-	=11-	=11-	=11-	=11-	=11-	=11-	=11-	=11-	=11-	=11-
2r	.	.	.	.	1F	-rum	-ti-	et	om-	1c	-ge-	-ma	-cta	Te_est
1F	An-	Pal-	ſan-	In	.	.	.	.	.	.	.	.	.	.
.	.	.	.	.	1G	gau-	-en-	im-	-nis	1B-X	-lo-	pa-	es	om-
2E\	-ge-	-ma	-cta	Te	.	.	.	.	.	.	.	.	.	.
=12-	=12-	=12-	=12-	=12-	=12-	=12-	=12-	=12-	=12-	=12-	=12-	=12-	=12-	=12-
1F	-lo-	pa-	es	est	4A\	.	.	-mu-	gra-	1A	-rum	-ti-	et	-nis
.	.	.	.	.	4G\	.	.	.	.	.	.	.	.	.
.	.	.	.	.	4A\	.	.	.	.	.	.	.	.	.
.	.	.	.	.	4B-X\	.	.	.	.	.	.	.	.	.
*	*	*	*	*	*custos:c	*	*	*	*	*	*	*	*	*
!	!	!	!	!	!LO:LB:g=original	!	!	!	!	!	!	!	!	!
2C/	-rum	.	et	om-	2c\	.	.	-nis	.	1.G	gau-	-en-	im-	gra-
2BB/	gau-	-ti-	im-	-nis	2d\	.	.	im-	.	.	.	.	.	.
=13-	=13-	=13-	=13-	=13-	=13-	=13-	=13-	=13-	=13-	=13-	=13-	=13-	=13-	=13-
2.C/	.	-en-	.	gra-	2.c\	.	.	-mu-	-ti-	.	.	.	.	.
.	.	.	.	.	.	.	.	.	.	2G/	-di-	-ti-	-mu-	-ti-
4C/	-di-	-ti-	-mu-	-ti-	4B-X\	.	.	.	-a	.	.	.	.	.
!	!	!	!	!	!	!	!	!	!	!LO:TX:t=P:problem:kreska pseudotaktowa	!	!	!	!
2FF,/	-um	-ae	-nis	-a	4A\	.	.	.	.	1A	-um	-ae	-nis	-a
.	.	.	.	.	4G\	.	.	.	.	.	.	.	.	.
1D\	Cel-	Ce-	Cul-	Vir-	4A\	.	.	.	.	.	.	.	.	.
.	.	.	.	.	4F/	.	.	.	.	.	.	.	.	.
=14-	=14-	=14-	=14-	=14-	=14-	=14-	=14-	=14-	=14-	=14-	=14-	=14-	=14-	=14-
.	.	.	.	.	2.E/	.	.	.	gra-	1G	Cel-	Ce-	cul-	Vir-
2C/	-la	-drus	-pae	-go	.	.	.	.	.	.	.	.	.	.
.	.	.	.	.	4E/	-di-	-ti-	-nis	-ti-	.	.	.	.	.
1F	pu-	ca-	o-	Sin-	1F	-um	-ae	cul-	-a	1A	-la	-drus	-pae	-go
=15-	=15-	=15-	=15-	=15-	=15-	=15-	=15-	=15-	=15-	=15-	=15-	=15-	=15-	=15-
!LO:LB:g=original	!	!	!	!	!	!	!	!	!	!	!	!	!	!
1E	-ri-	-sti-	-ri-	-gu-	1G	cel-	Ce-	-pae	Vir-	1G	pu-	ca-	ori-	Sin-
!	!	!	!	!	!	!	!	!	!	!LO:LB:g=original	!	!	!	!
4D/	-ta-	-ta-	-gi-	-la-	2A/	-la	-drus	o-	-go	1F	-ri-	-sti-	-gi-	-gu-
4C/	.	.	.	.	.	.	.	.	.	.	.	.	.	.
4BB-X/	.	.	-na-	.	1B-X\	pu-	ca-	-ri-	ſin-	.	.	.	.	.
4AA/	.	.	.	.	.	.	.	.	.	.	.	.	.	.
=16-	=16-	=16-	=16-	=16-	=16-	=16-	=16-	=16-	=16-	=16-	=16-	=16-	=16-	=16-
*lig	*	*	*	*	*	*	*	*	*	*	*	*	*	*
1GG	.	.	.	.	.	.	.	.	.	0E	-ta-	-ta-	-na-	-la-
.	.	.	.	.	2B-\	-ri-	-sti-	-gi-	-gu-	.	.	.	.	.
1AA	.	.	.	.	1A	-ta-	-ta-	-na-	-la-	.	.	.	.	.
*Xlig	*	*	*	*	*	*	*	*	*	*	*	*	*	*
=17-	=17-	=17-	=17-	=17-	=17-	=17-	=17-	=17-	=17-	=17-	=17-	=17-	=17-	=17-
0D;;	-tis	-tis	-lis	-ris	0A;;	-tis	-tis	-lis	-ris.	0D;;	-tis	-tis	-lis	-ris.
==	==	==	==	==	==	==	==	==	==	==	==	==	==	==
*-	*-	*-	*-	*-	*-	*-	*-	*-	*-	*-	*-	*-	*-	*-
!!!system-decoration: [(s1,s2,s3)]
!!!RDF**kern: l = terminal long
!!!ENC: Katarzyna Serwa
!!!END: 2021-10-23
!!!ENC: Andrzej Kubiczek
!!!END: 2021-10-23
